Yaru++/actions/16/path-offset-dynamic.svg

<svg viewBox="0 0 16 16" xmlns="http://www.w3.org/2000/svg">
  <g fill="#808080">
    <path d="m14 2a12.00001 12.00001 0 0 0 -12 12h1a11 11 0 0 1 11-11zm0 6a6 6 0 0 0 -6 6h1a5 5 0 0 1 5-5z"/>
    <path d="m6 6v4h4v-4zm1 1h2v2h-2z"/>
  </g>
</svg>

<svg xmlns="http://www.w3.org/2000/svg" viewBox="0 0 16 16">
 <defs>
  <style id="current-color-scheme" type="text/css">
   .ColorScheme-Text { color:#808080; } .ColorScheme-Highlight { color:#1d99f3; }
  </style>
 </defs>
 <path fill="#808080" class="ColorScheme-Text" d="M 14 2 A 12.00001 12.00001 0 0 0 2 14 L 3 14 A 11 11 0 0 1 14 3 L 14 2 z M 14 8 A 6 6 0 0 0 8 14 L 9 14 A 5 5 0 0 1 14 9 L 14 8 z"/>
 <path fill="#808080" class="ColorScheme-Highlight" d="m 6,6 0,4 4,0 0,-4 z M 7,7 9,7 9,9 7,9 Z"/>
</svg>
